src/apps/symbolic/preferences-system-devices-symbolic.svg

<svg width="16" height="16" version="1.1" xmlns="http://www.w3.org/2000/svg">
 <path d="m8.002 5c-0.55329-0.0016618-1.0026 0.4467-1.002 1v5c0 0.554 0.447 1 1.002 1h6.996c0.5533 0.0017 1.0026-0.4467 1.002-1v-5c0-0.554-0.447-1-1.002-1zm-2e-3 1h7v5h-7z" fill="#363636"/>
 <rect x="9" y="13" width="5" height="1" rx="0" ry="0" fill="#363636"/>
 <path d="m5 0c-1.108 0-2 0.892-2 2v3h-2c-0.554 0-1 0.446-1 1v5c0 0.554 0.446 1 1 1h2v2c0 1.108 0.892 2 2 2h6v-1h-6c-0.554 0-1-0.446-1-1v-2h2v-1-6h-2v-3c0-0.554 0.446-1 1-1h6c0.554 0 1 0.446 1 1v2h1v-2c0-1.108-0.892-2-2-2h-6zm-4 6h4v5h-4v-5zm1 1v1h1v-1h-1z" fill="#363636"/>
</svg>

<svg xmlns="http://www.w3.org/2000/svg" width="16" height="16">
    <path fill="#050505" fill-opacity=".7" d="M8.002 5A.999.999 0 0 0 7 6v5c0 .554.447 1 1.002 1h6.996A.999.999 0 0 0 16 11V6c0-.554-.447-1-1.002-1zM8 6h7v5H8z"/>
    <rect width="5" height="1" x="9" y="13" fill="#050505" fill-opacity=".7" rx="0" ry="0"/>
    <path fill="#050505" fill-opacity=".7" d="M5 0C3.892 0 3 .892 3 2v3H1c-.554 0-1 .446-1 1v5c0 .554.446 1 1 1h2v2c0 1.108.892 2 2 2h6v-1H5c-.554 0-1-.446-1-1v-2h2V5H4V2c0-.554.446-1 1-1h6c.554 0 1 .446 1 1v2h1V2c0-1.108-.892-2-2-2H5zM1 6h4v5H1V6zm1 1v1h1V7H2z"/>
</svg>
